svgs/sharp-regular/arrow-down-left-and-arrow-up-right-to-center.svg

<svg xmlns="http://www.w3.org/2000/svg" viewBox="0 0 512 512"><!--! Font Awesome Pro 6.6.0 by @fontawesome - https://fontawesome.com License - https://fontawesome.com/license (Commercial License) Copyright 2024 Fonticons, Inc. --><path d="M489 57l17-17L472 6.1 455 23l-135 135L320 72l0-24-48 0 0 24 0 144 0 24 24 0 144 0 24 0 0-48-24 0-86.1 0L489 57zM23 455l-17 17L40 505.9l17-17 135-135 0 86.1 0 24 48 0 0-24 0-144 0-24-24 0L72 272l-24 0 0 48 24 0 86.1 0L23 455z"/></svg>

<svg xmlns="http://www.w3.org/2000/svg" viewBox="0 0 512 512"><!--! Font Awesome Pro 6.4.0 by @fontawesome - https://fontawesome.com License - https://fontawesome.com/license (Commercial License) Copyright 2023 Fonticons, Inc. --><path d="M489 57l17-17L472 6.1 455 23l-135 135V72 48H272V72 216v24h24H440h24V192H440 353.9L489 57zM23 455l-17 17L40 505.9l17-17 135-135V440v24h48V440 296 272H216 72 48v48H72h86.1L23 455z"/></svg>
